img/logo-html5.svg

<svg xmlns="http://www.w3.org/2000/svg" width="512" height="512" viewBox="0 0 512 512"><path d="m64 32 34.94 403.21L255.77 480 413 435.15 448 32Zm308 132H188l4 51h176l-13.51 151.39L256 394.48l-98.68-28-6.78-77.48h48.26l3.42 39.29L256 343.07l53.42-14.92L315 264H148l-12.59-149.59H376.2Z"/></svg>

<svg xmlns="http://www.w3.org/2000/svg" width="512" height="512" viewBox="0 0 512 512"><path d="M64,32,98.94,435.21,255.77,480,413,435.15,448,32ZM372,164H188l4,51H368L354.49,366.39,256,394.48l-98.68-28L150.54,289H198.8l3.42,39.29L256,343.07l53.42-14.92L315,264H148L135.41,114.41l240.79,0Z"/></svg>
